OBS Studio/Fluent Dark Grey/dots.svg

<svg viewBox="112 432 800 160" xmlns="http://www.w3.org/2000/svg"><path d="m112 512c0-11 2.167-21.333 6.5-31s10.083-18.083 17.25-25.25 15.583-12.917 25.25-17.25 20-6.5 31-6.5 21.333 2.167 31 6.5 18.083 10.083 25.25 17.25 12.917 15.583 17.25 25.25 6.5 20 6.5 31-2.167 21.333-6.5 31-10.083 18.083-17.25 25.25-15.583 12.917-25.25 17.25-20 6.5-31 6.5-21.333-2.167-31-6.5-18.083-10.083-25.25-17.25-12.917-15.583-17.25-25.25-6.5-20-6.5-31zm320 0c0-11 2.167-21.333 6.5-31s10.083-18.083 17.25-25.25 15.583-12.917 25.25-17.25 20-6.5 31-6.5 21.333 2.167 31 6.5 18.083 10.083 25.25 17.25 12.917 15.583 17.25 25.25 6.5 20 6.5 31-2.167 21.333-6.5 31-10.083 18.083-17.25 25.25-15.583 12.917-25.25 17.25-20 6.5-31 6.5-21.333-2.167-31-6.5-18.083-10.083-25.25-17.25-12.917-15.583-17.25-25.25-6.5-20-6.5-31zm320 0c0-11 2.167-21.333 6.5-31s10.083-18.083 17.25-25.25 15.583-12.917 25.25-17.25 20-6.5 31-6.5 21.333 2.167 31 6.5 18.083 10.083 25.25 17.25 12.917 15.583 17.25 25.25 6.5 20 6.5 31-2.167 21.333-6.5 31-10.083 18.083-17.25 25.25-15.583 12.917-25.25 17.25-20 6.5-31 6.5-21.333-2.167-31-6.5-18.083-10.083-25.25-17.25-12.917-15.583-17.25-25.25-6.5-20-6.5-31z" fill="#fff"></path></svg>

<!-- Exported by Character Map UWP -->
<svg height="100%" viewBox="112 432 800 160" width="100%" xmlns="http://www.w3.org/2000/svg" xmlns:xlink="http://www.w3.org/1999/xlink">
  <path d="M112,512C112,501 114.167,490.667 118.5,481C122.833,471.333 128.583,462.917 135.75,455.75C142.917,448.583 151.333,442.833 161,438.5C170.667,434.167 181,432 192,432C203,432 213.333,434.167 223,438.5C232.667,442.833 241.083,448.583 248.25,455.75C255.417,462.917 261.167,471.333 265.5,481C269.833,490.667 272,501 272,512C272,523 269.833,533.333 265.5,543C261.167,552.667 255.417,561.083 248.25,568.25C241.083,575.417 232.667,581.167 223,585.5C213.333,589.833 203,592 192,592C181,592 170.667,589.833 161,585.5C151.333,581.167 142.917,575.417 135.75,568.25C128.583,561.083 122.833,552.667 118.5,543C114.167,533.333 112,523 112,512ZM432,512C432,501 434.167,490.667 438.5,481C442.833,471.333 448.583,462.917 455.75,455.75C462.917,448.583 471.333,442.833 481,438.5C490.667,434.167 501,432 512,432C523,432 533.333,434.167 543,438.5C552.667,442.833 561.083,448.583 568.25,455.75C575.417,462.917 581.167,471.333 585.5,481C589.833,490.667 592,501 592,512C592,523 589.833,533.333 585.5,543C581.167,552.667 575.417,561.083 568.25,568.25C561.083,575.417 552.667,581.167 543,585.5C533.333,589.833 523,592 512,592C501,592 490.667,589.833 481,585.5C471.333,581.167 462.917,575.417 455.75,568.25C448.583,561.083 442.833,552.667 438.5,543C434.167,533.333 432,523 432,512ZM752,512C752,501 754.167,490.667 758.5,481C762.833,471.333 768.583,462.917 775.75,455.75C782.917,448.583 791.333,442.833 801,438.5C810.667,434.167 821,432 832,432C843,432 853.333,434.167 863,438.5C872.667,442.833 881.083,448.583 888.25,455.75C895.417,462.917 901.167,471.333 905.5,481C909.833,490.667 912,501 912,512C912,523 909.833,533.333 905.5,543C901.167,552.667 895.417,561.083 888.25,568.25C881.083,575.417 872.667,581.167 863,585.5C853.333,589.833 843,592 832,592C821,592 810.667,589.833 801,585.5C791.333,581.167 782.917,575.417 775.75,568.25C768.583,561.083 762.833,552.667 758.5,543C754.167,533.333 752,523 752,512Z" fill="#FFFFFF" fill-opacity="1">
  </path>
</svg>
